X:1
T:Fiat Lux, 66.46.664
T:Fiat Lux, 66.46.664
T:John Bacchus Dykes, 1875
T:Public Domain Courtesy of the Cyber Hymnal™
C:John Bacchus Dykes, 1875
Z:Public Domain
Z:Courtesy of the Cyber Hymnal™
%%score ( 1 2 ) ( 3 4 )
L:1/8
Q:1/4=110
M:3/4
K:A
V:1 treble 
V:2 treble 
V:3 bass 
V:4 bass 
V:1
 E2 [DA]2 [DB]2 | [Cc]3 [DB] [DA]2 | [Ee]2 [Fd]2 [Ec]2 | [^DB]2 B2 [Cc]2 | [GB]2 [EG]2 [^DF]2 | %5
 E6 | [GB]2 [FB]2 [Ec]2 | [Dd]3 [Ec] [FB]2 | [FA]2 [EA]2 [DB]2 | [Cc]3 [DB] [EA]2 | %10
 [Ee]2 [Fd]2 [Ec]2 | [^DB]3 [DA] (GF) | E2 [EB]2 [EB]2 | [EA]6 |] %14
V:2
 E2 x4 | x6 | x6 | x2 (E=D) x2 | x6 | E6 | x6 | x6 | x6 | x6 | x6 | x4 ^D2 | E2 x4 | x6 |] %14
V:3
 [A,C]2 [F,A,]2 [E,G,]2 | [A,,A,]3 [A,,B,] [A,,C]2 | [C,A,]2 [D,A,]2 [E,A,]2 | %3
 [F,A,]2 [G,B,]2 [A,E]2 | [B,E]2 B,2 [B,,A,]2 | [E,G,]6 | [E,B,]2 [D,F,]2 (G,^A,) | %7
 [B,,B,]3 [B,,C] [B,,D]2 | [D,A,]2 [C,E,]2 (F,G,) | [A,,A,]3 [A,,B,] [A,,C]2 | %10
 [C,A,]2 [D,A,]2 [E,A,]2 | [F,A,]3 [B,,F,] (G,A,) | [E,G,]2 [E,G,B,D]2 [E,G,B,D]2 | [A,,A,C]6 |] %14
V:4
 x6 | x6 | x6 | x6 | x6 | x6 | x4 C,2 | x6 | x4 B,,2 | x6 | x6 | x4 B,,2 | x6 | x6 |] %14

